X: 23988
T: Lodge Road, The
R: barndance
M: 4/4
K: Dmajor
A|:d2 (df) edcB|A2 A2 A2 F2|DFAF DFAF|G2 (FG) E2 A2|
d2 (df) edcB|A2 A2 A2 F2|DFAF G2 (EF)|D2 D2 D3 A:|
|:defg agfe|defg a2 (af)|gabc' d'c'ba|gabc' d'2 f2|
gbag fagf|edef g2 (fe)|d2 f2 abaf|g2 fg e2 z2|
f2 f2 g2 g2|e2 e2 f2 (fe)|dfaf bgec|1 d2 ab agfe:|2 d2 (EF) GABc||

